X: 60
%
U:~=!turn!
T: The Braes of Tullymet
C:
O:Scotland
B:Keith Norman MacDonald : "The Skye collection of the best reels & strathspeys extant" : 1887
Z:Ralph Palmer
R:Strathspey
M:C
L:1/8
K:G aeolian
c | (A<d){/e}d>c d>cd<f | (A>F)c>F d>Fc>F | (A<d){/e}d>c d>cd>g | Tf>d {/d}(cB/A/) {/^F}G2 G :|
d | Tg>d(g<b) g>d(g<b) | Tf>c(f<a) Tf>c(f<a) | Tg>d(g<b) g>d(g<b) | Tf>d {/d}(cB/A/) {/^F}G2 G>d |
Tg>d(g>b) d(g/a/) b>g | Tf>c(f<a) c(f/g/) a>f | Tg<d{/e}d>=e Tf>g{/g}a>g | Tf>d {/e}(d/c/)TB/A/ {/^F}G2 G |]


